X: 3346
T: MONTH OF MAY
%R: hornpipe, reel
B: James Kerr "Merry Melodies" v.3 p.37 #346
Z: 2016 John Chambers <jc:trillian.mit.edu>
M: C
L: 1/8
K: G
d2 |\
gdgd BcdB | ecec A2(AB) |\
cAcA FGAF |[1,3 GABc d2 :|[2,4 G2B2G2 |:\
D2 |\
B,DGD BAGF | ECEA cBAG |
FDFA  dcBA | GFGA B2D2 |\
B,DGD BAGF | ECEA cBAG |\
FGAB  cdef | g2b2g2 :|

%%sep 1 1 500
%%sep 1 1 500

